qml/icons/map-layers.svg

<?xml version="1.0" encoding="UTF-8" standalone="no"?>
<!-- Created with Inkscape (http://www.inkscape.org/) -->

<svg
   xmlns:dc="http://purl.org/dc/elements/1.1/"
   xmlns:cc="http://creativecommons.org/ns#"
   xmlns:rdf="http://www.w3.org/1999/02/22-rdf-syntax-ns#"
   xmlns:svg="http://www.w3.org/2000/svg"
   xmlns="http://www.w3.org/2000/svg"
   xmlns:sodipodi="http://sodipodi.sourceforge.net/DTD/sodipodi-0.dtd"
   xmlns:inkscape="http://www.inkscape.org/namespaces/inkscape"
   width="64"
   height="64"
   id="svg1901"
   sodipodi:version="0.32"
   inkscape:version="0.92.4 5da689c313, 2019-01-14"
   sodipodi:docname="maplayer.svg"
   version="1.1"
   inkscape:export-xdpi="132"
   inkscape:export-ydpi="132"
   inkscape:export-filename="/home/mo/Dokumente/Pure Maps/all/map_layer.png">
  <defs
     id="defs1903">
    <inkscape:path-effect
       effect="skeletal"
       id="path-effect1141"
       is_visible="true"
       pattern="m 34.689574,969.36218 h 5.555213 v 5.55521 h -5.555213 z"
       copytype="single_stretched"
       prop_scale="0.19650566"
       scale_y_rel="false"
       spacing="0"
       normal_offset="0"
       tang_offset="0"
       prop_units="false"
       vertical_pattern="false"
       fuse_tolerance="0" />
    <inkscape:path-effect
       effect="simplify"
       id="path-effect1133"
       is_visible="true"
       steps="1"
       threshold="0.000408163"
       smooth_angles="360"
       helper_size="0"
       simplify_individual_paths="false"
       simplify_just_coalesce="false"
       simplifyindividualpaths="false"
       simplifyJustCoalesce="false" />
    <inkscape:path-effect
       effect="bend_path"
       id="path-effect1097"
       is_visible="true"
       bendpath="m 30.649422,981.81624 c 0.312594,0.74365 1.174823,1.05751 1.483128,2.00628 0.647207,0.92962 1.711419,1.49782 2.263486,2.51236 0.717765,1.07184 1.270794,2.29192 2.304098,3.1099 0.331187,1.0145 1.224004,1.63822 1.982144,2.34029 0.691547,0.76838 0.936689,1.9828 1.950857,2.46065 0.779493,0.30467 1.335918,0.95064 1.670423,1.70203 0.511807,0.90176 1.09316,1.77004 1.752947,2.56368 0.374467,0.66001 0.819506,1.26401 1.374905,1.76257 0.438183,0.7554 0.931309,1.4647 1.445652,2.1613 0.177785,0.5193 0.479365,0.8656 0.690506,1.1809"
       prop_scale="1"
       scale_y_rel="false"
       vertical="false" />
    <inkscape:path-effect
       effect="simplify"
       id="path-effect1095"
       is_visible="true"
       steps="1"
       threshold="0.000408163"
       smooth_angles="360"
       helper_size="0"
       simplify_individual_paths="false"
       simplify_just_coalesce="false"
       simplifyindividualpaths="false"
       simplifyJustCoalesce="false" />
    <inkscape:path-effect
       effect="simplify"
       id="path-effect1046"
       is_visible="true"
       steps="1"
       threshold="0.000408163"
       smooth_angles="360"
       helper_size="0"
       simplify_individual_paths="false"
       simplify_just_coalesce="false"
       simplifyindividualpaths="false"
       simplifyJustCoalesce="false" />
    <inkscape:path-effect
       effect="simplify"
       id="path-effect1042"
       is_visible="true"
       steps="1"
       threshold="0.000408163"
       smooth_angles="360"
       helper_size="0"
       simplify_individual_paths="false"
       simplify_just_coalesce="false"
       simplifyindividualpaths="false"
       simplifyJustCoalesce="false" />
    <inkscape:path-effect
       effect="powerstroke"
       id="path-effect943"
       is_visible="true"
       offset_points="0.013484154,0.39250367"
       sort_points="true"
       interpolator_type="CubicBezierJohan"
       interpolator_beta="0.2"
       start_linecap_type="zerowidth"
       linejoin_type="extrp_arc"
       miter_limit="4"
       end_linecap_type="zerowidth" />
  </defs>
  <sodipodi:namedview
     id="base"
     pagecolor="#ffffff"
     bordercolor="#666666"
     borderopacity="1.0"
     inkscape:pageopacity="0.0"
     inkscape:pageshadow="2"
     inkscape:zoom="3.6072643"
     inkscape:cx="85.676957"
     inkscape:cy="27.586986"
     inkscape:document-units="px"
     inkscape:current-layer="layer1"
     inkscape:window-width="2880"
     inkscape:window-height="1506"
     inkscape:window-x="0"
     inkscape:window-y="0"
     showgrid="false"
     inkscape:window-maximized="1"
     inkscape:showpageshadow="false"
     inkscape:document-rotation="0"
     fit-margin-top="0"
     fit-margin-left="0"
     fit-margin-right="0"
     fit-margin-bottom="0"
     showguides="false"
     inkscape:guide-bbox="true"
     guidetolerance="5"
     objecttolerance="5"
     gridtolerance="15">
    <inkscape:grid
       type="xygrid"
       id="grid10137"
       empspacing="4"
       visible="true"
       enabled="true"
       snapvisiblegridlinesonly="true"
       originx="-24.000001"
       originy="-24.000021" />
    <sodipodi:guide
       position="21.999999,31.999979"
       orientation="0,1"
       id="guide1355"
       inkscape:locked="false" />
    <sodipodi:guide
       position="-0.4238536,45.498901"
       orientation="0,1"
       id="guide1359"
       inkscape:locked="false" />
    <sodipodi:guide
       position="31.999999,26.999979"
       orientation="1,0"
       id="guide956"
       inkscape:locked="false" />
    <sodipodi:guide
       position="0.999999,58.999979"
       orientation="0,1"
       id="guide882"
       inkscape:locked="false" />
    <sodipodi:guide
       position="1.3789062,47.5"
       orientation="0,1"
       id="guide886"
       inkscape:locked="false" />
    <sodipodi:guide
       position="40.761719,48.5"
       orientation="0,1"
       id="guide857"
       inkscape:locked="false" />
    <sodipodi:guide
       position="9.999999,4.999979"
       orientation="1,0"
       id="guide858"
       inkscape:locked="false" />
    <sodipodi:guide
       position="53.999999,0.999979"
       orientation="1,0"
       id="guide860"
       inkscape:locked="false" />
    <sodipodi:guide
       position="52.999999,36.999979"
       orientation="1,0"
       id="guide880"
       inkscape:locked="false" />
  </sodipodi:namedview>
  <metadata
     id="metadata1906">
    <rdf:RDF>
      <cc:Work
         rdf:about="">
        <dc:format>image/svg+xml</dc:format>
        <dc:type
           rdf:resource="http://purl.org/dc/dcmitype/StillImage" />
        <dc:title />
      </cc:Work>
    </rdf:RDF>
  </metadata>
  <g
     inkscape:label="Taso 1"
     inkscape:groupmode="layer"
     id="layer1"
     transform="translate(-24.000001,-964.36218)">
    <path
       style="opacity:1;fill:#000000;fill-opacity:0.18000001;stroke:none;stroke-width:0;stroke-linecap:butt;stroke-linejoin:miter;stroke-miterlimit:4;stroke-dasharray:none;stroke-opacity:1;paint-order:stroke markers fill"
       d="M 7.2148438 38.945312 L 3.7421875 40.898438 L 3.7363281 40.898438 C -1.2522079 43.703938 -1.2503225 48.2547 3.7421875 51.0625 L 13.351562 56.464844 L 22.962891 61.882812 L 22.964844 61.882812 C 27.953384 64.688113 36.044612 64.687094 41.037109 61.871094 L 41.039062 61.871094 L 50.630859 56.476562 L 50.634766 56.476562 L 60.25 51.070312 L 60.255859 51.070312 C 65.243864 48.265014 65.242804 43.71415 60.251953 40.90625 L 60.25 40.90625 L 56.78125 38.951172 L 50.634766 42.408203 L 50.630859 42.408203 L 49.318359 43.146484 L 51.966797 44.628906 C 52.722333 45.051806 53.113737 45.599797 53.140625 46.154297 C 53.169475 46.749197 52.778843 47.351087 51.96875 47.804688 L 51.941406 47.792969 L 51.962891 47.804688 L 43.460938 52.566406 L 43.470703 52.578125 L 34.980469 57.330078 L 34.978516 57.330078 C 33.41221 58.207178 30.875602 58.207578 29.310547 57.330078 L 29.332031 57.316406 L 29.308594 57.328125 L 20.806641 52.5625 L 12.310547 47.806641 C 10.744241 46.929541 10.743622 45.508912 12.308594 44.632812 L 12.337891 44.644531 L 12.314453 44.628906 L 14.824219 43.224609 L 13.351562 42.394531 L 7.2148438 38.945312 z "
       transform="translate(24.000001,964.36218)"
       id="rect890" />
    <path
       style="opacity:1;fill:#000000;fill-opacity:1;stroke:none;stroke-width:0;stroke-linecap:butt;stroke-linejoin:miter;stroke-miterlimit:4;stroke-dasharray:none;stroke-opacity:1;paint-order:stroke markers fill"
       d="M 31.992188 0 L 31.992188 0.00390625 C 28.721832 0.00453625 25.451327 0.70767812 22.955078 2.1113281 L 22.953125 2.1113281 L 13.347656 7.5136719 L 3.7421875 12.917969 L 3.7363281 12.917969 C -1.2522079 15.723569 -1.2503215 20.274131 3.7421875 23.082031 L 13.351562 28.484375 L 22.962891 33.902344 L 22.964844 33.902344 C 27.953384 36.707724 36.044612 36.706705 41.037109 33.890625 L 41.039062 33.890625 L 50.630859 28.496094 L 50.634766 28.496094 L 60.25 23.089844 L 60.255859 23.089844 C 65.243864 20.284644 65.242804 15.733581 60.251953 12.925781 L 60.25 12.925781 L 50.644531 7.5136719 L 41.029297 2.1054688 L 41.027344 2.1035156 C 38.533073 0.70075563 35.262542 -0.00062 31.992188 0 z M 32.134766 6.3222656 C 33.160658 6.3221656 34.186222 6.5416888 34.96875 6.9804688 L 34.947266 6.9941406 L 34.970703 6.9824219 L 43.470703 11.744141 L 43.474609 11.744141 L 51.966797 16.5 C 52.722336 16.92297 53.113736 17.472874 53.140625 18.027344 C 53.169475 18.622294 52.778846 19.222171 51.96875 19.675781 L 51.941406 19.664062 L 51.962891 19.675781 L 43.460938 24.4375 L 43.470703 24.449219 L 34.980469 29.203125 C 33.414158 30.080195 30.875605 30.080675 29.310547 29.203125 L 29.332031 29.1875 L 29.308594 29.199219 L 20.806641 24.433594 L 12.310547 19.675781 C 10.744238 18.798811 10.743619 17.380006 12.308594 16.503906 L 12.337891 16.513672 L 12.314453 16.498047 L 20.816406 11.738281 L 20.808594 11.738281 L 29.296875 6.984375 C 30.08003 6.545815 31.108874 6.3262819 32.134766 6.3261719 L 32.134766 6.3222656 z "
       transform="translate(24.000001,964.36218)"
       id="path866" />
    <path
       style="opacity:1;fill:#000000;fill-opacity:0.36000001;stroke:none;stroke-width:0;stroke-linecap:butt;stroke-linejoin:miter;stroke-miterlimit:4;stroke-dasharray:none;stroke-opacity:1;paint-order:stroke markers fill"
       d="M 7.0742188 24.955078 L 3.7421875 26.828125 L 3.7363281 26.828125 C -1.2522079 29.633625 -1.2503635 34.182867 3.7421875 36.992188 L 13.351562 42.394531 L 22.962891 47.814453 L 22.964844 47.814453 C 27.953384 50.619753 36.044612 50.617181 41.037109 47.800781 L 41.039062 47.800781 L 50.630859 42.408203 L 50.634766 42.408203 L 60.25 37 L 60.255859 37 C 65.243864 34.19328 65.242798 29.643838 60.251953 26.835938 L 60.25 26.835938 L 56.921875 24.960938 L 50.634766 28.496094 L 50.630859 28.496094 L 49.453125 29.158203 L 51.962891 30.564453 C 52.71827 30.987443 53.107883 31.535514 53.134766 32.089844 C 53.163606 32.684674 52.772815 33.284771 51.962891 33.738281 L 51.9375 33.728516 L 51.958984 33.738281 L 43.458984 38.5 L 43.46875 38.511719 L 34.980469 43.263672 L 34.978516 43.263672 C 33.412537 44.140572 30.875274 44.141072 29.310547 43.263672 L 29.332031 43.248047 L 29.310547 43.261719 L 20.808594 38.498047 L 12.314453 33.738281 C 10.748476 32.861501 10.747902 31.442316 12.3125 30.566406 L 12.341797 30.578125 L 12.318359 30.5625 L 14.6875 29.236328 L 13.351562 28.484375 L 7.0742188 24.955078 z "
       transform="translate(24.000001,964.36218)"
       id="path868" />
  </g>
</svg>

<svg xmlns="http://www.w3.org/2000/svg" width="64" height="64"><path style="opacity:1;fill:#000;fill-opacity:.18000001;stroke:none;stroke-width:0;stroke-linecap:butt;stroke-linejoin:miter;stroke-miterlimit:4;stroke-dasharray:none;stroke-opacity:1;paint-order:stroke markers fill" d="m7.215 38.945-3.473 1.953h-.006c-4.988 2.806-4.986 7.357.006 10.164l9.61 5.403 9.61 5.418h.003c4.988 2.805 13.08 2.804 18.072-.012h.002l9.592-5.394h.004l9.615-5.407h.006c4.988-2.805 4.987-7.356-.004-10.164h-.002l-3.469-1.955-6.146 3.457h-.004l-1.313.738 2.649 1.483c.755.423 1.147.97 1.174 1.525.028.595-.362 1.197-1.172 1.65l-.028-.011.022.012-8.502 4.761.01.012-8.49 4.752h-.002c-1.567.877-4.103.878-5.668 0l.021-.014-.023.012-8.502-4.766-8.496-4.755c-1.567-.877-1.567-2.298-.002-3.174l.029.012-.024-.016 2.51-1.404-1.472-.83-6.137-3.45z"/><path style="opacity:1;fill:#000;fill-opacity:1;stroke:none;stroke-width:0;stroke-linecap:butt;stroke-linejoin:miter;stroke-miterlimit:4;stroke-dasharray:none;stroke-opacity:1;paint-order:stroke markers fill" d="M31.992 0v.004c-3.27 0-6.54.704-9.037 2.107h-.002l-9.605 5.403-9.606 5.404h-.006c-4.988 2.806-4.986 7.356.006 10.164l9.61 5.402 9.61 5.418h.003c4.988 2.806 13.08 2.805 18.072-.011h.002l9.592-5.395h.004l9.615-5.406h.006c4.988-2.805 4.987-7.356-.004-10.164h-.002l-9.605-5.412-9.616-5.409-.002-.001C38.533.7 35.263-.001 31.992 0zm.143 6.322c1.026 0 2.051.22 2.834.658l-.022.014.024-.012 8.5 4.762h.004l8.492 4.756c.755.423 1.147.973 1.174 1.527.028.595-.362 1.195-1.172 1.649l-.028-.012.022.012-8.502 4.762.01.011-8.49 4.754c-1.567.877-4.105.878-5.67 0l.021-.015-.023.011-8.502-4.765-8.496-4.758c-1.567-.877-1.567-2.296-.002-3.172l.029.01-.024-.016 8.502-4.76h-.007l8.488-4.754c.783-.438 1.812-.658 2.838-.658v-.004z"/><path style="opacity:1;fill:#000;fill-opacity:.36000001;stroke:none;stroke-width:0;stroke-linecap:butt;stroke-linejoin:miter;stroke-miterlimit:4;stroke-dasharray:none;stroke-opacity:1;paint-order:stroke markers fill" d="m7.074 24.955-3.332 1.873h-.006c-4.988 2.806-4.986 7.355.006 10.164l9.61 5.403 9.61 5.42h.003c4.988 2.805 13.08 2.802 18.072-.014h.002l9.592-5.393h.004L60.25 37h.006c4.988-2.807 4.987-7.356-.004-10.164h-.002l-3.328-1.875-6.287 3.535h-.004l-1.178.662 2.51 1.406c.755.423 1.145.972 1.172 1.526.029.595-.362 1.195-1.172 1.648l-.026-.01.022.01-8.5 4.762.01.012-8.489 4.752h-.001c-1.566.877-4.104.877-5.668 0l.021-.016-.021.014-8.502-4.764-8.495-4.76c-1.566-.876-1.566-2.296-.002-3.172l.03.012-.024-.015 2.37-1.327-1.336-.752-6.278-3.529z"/></svg>
